X:1
T:Psalm 63
L:1/4
M:2/2
I:linebreak $
K:D
V:1 treble nm="Violin" snm="Vln."
V:1
 D2 F2 G2 A2 F2 E E D2 z4 |$ d2 c B A F B2 B2 A2 z2 |$ d2 c B A F G2 G2 F2 z2 |$ %3
w: Maar ek is in die HE- RE bly|met al- mal wat sy Naam be- ly;|ons roem, daar Hy die boos- heid stuit|
 A2 B A G2 F2 E E D2 z2 |] %4
w: en streng die leu- en- mon- de sluit.|

